X: 1
T: To Ting
O: Danmark
N: Vary the number of repeats to try to confuse the dancers.
Z: John Chambers <jc@trillian.mit.edu>
M: 3/4
L: 1/8
K: G
P: In G:
D>G \
| "G"B4 D>G | B4 B>c | d2 c2 B2 | "D7"A4 D>F \
| A4 D>F | A4 A>B | c2 B2 A2 | "G"G4 :|
M: 6/8
|: "G"DGB DGB | DGB dcB | "D7"DFA DFA | cBA "G"G3 :|
%%sep 10 10 200
P: In D:
M: 3/4
L: 1/8
K: D
A>d \
| "D"f4 A>d | f4 f>g | a2 g2 f2 | "A7"e4 A>c \
| e4 A>c | e4 e>f | g2 f2 e2 | "D"d4 :|
M: 6/8
|: "D"Adf Adf | Adf agf | "A7"Ace Ace | gfe "D"d3 :|
